build/images/icon-basket.svg

<svg width="34" height="29" viewBox="0 0 34 29" fill="none" xmlns="http://www.w3.org/2000/svg">
<path d="M33.2518 9.19995L12.0388 3.79447C11.7023 3.70872 11.3451 3.80304 11.0961 4.04334C10.8471 4.28365 10.7424 4.63521 10.8198 4.97108L14.0807 19.1234H12.8039L8.9023 2.18998C8.81544 1.81304 8.51482 1.52106 8.13298 1.4427L1.19796 0.0206408C0.659475 -0.0897571 0.132208 0.253696 0.0208445 0.78789C-0.0905854 1.32208 0.255857 1.84468 0.794545 1.95508L7.10262 3.24854L11.0386 20.331C11.1421 20.7801 11.545 21.0987 12.0097 21.0987C12.959 21.0987 30.808 21.0987 31.6093 21.0987C32.1135 21.0987 32.529 20.7239 32.5959 20.2469L33.9904 10.2925C34.0602 9.79498 33.7423 9.32491 33.2518 9.19995ZM30.7421 19.1233H16.1242L13.126 6.11098L31.895 10.8937L30.7421 19.1233Z" fill="white"/>
<path d="M19.0362 10.1684C18.4861 10.1684 18.0401 10.6106 18.0401 11.1561V15.5019C18.0401 16.0473 18.4861 16.4895 19.0362 16.4895C19.5863 16.4895 20.0323 16.0473 20.0323 15.5019V11.1561C20.0323 10.6106 19.5863 10.1684 19.0362 10.1684Z" fill="white"/>
<path d="M27.562 12.5388C27.0119 12.5388 26.5659 12.981 26.5659 13.5264V15.5019C26.5659 16.0473 27.0119 16.4895 27.562 16.4895C28.1121 16.4895 28.5581 16.0473 28.5581 15.5019V13.5265C28.5581 12.981 28.1121 12.5388 27.562 12.5388Z" fill="white"/>
<path d="M16.8291 22.4155C14.9983 22.4155 13.5088 23.8924 13.5088 25.7078C13.5088 27.5231 14.9983 29 16.8291 29C18.6599 29 20.1494 27.5231 20.1494 25.7078C20.1494 23.8924 18.6599 22.4155 16.8291 22.4155ZM16.8291 27.0247C16.0968 27.0247 15.501 26.434 15.501 25.7078C15.501 24.9817 16.0968 24.3909 16.8291 24.3909C17.5614 24.3909 18.1572 24.9816 18.1572 25.7078C18.1572 26.434 17.5614 27.0247 16.8291 27.0247Z" fill="white"/>
<path d="M26.79 22.4155C24.9592 22.4155 23.4697 23.8924 23.4697 25.7078C23.4697 27.5231 24.9592 29 26.79 29C28.6208 29 30.1103 27.5231 30.1103 25.7078C30.1102 23.8924 28.6208 22.4155 26.79 22.4155ZM26.79 27.0247C26.0577 27.0247 25.4619 26.434 25.4619 25.7078C25.4619 24.9817 26.0577 24.3909 26.79 24.3909C27.5223 24.3909 28.1181 24.9816 28.1181 25.7078C28.1181 26.434 27.5223 27.0247 26.79 27.0247Z" fill="white"/>
<path d="M23.2991 11.4853C22.749 11.4853 22.303 11.9275 22.303 12.4729V15.5019C22.303 16.0473 22.749 16.4895 23.2991 16.4895C23.8492 16.4895 24.2952 16.0473 24.2952 15.5019V12.473C24.2952 11.9275 23.8492 11.4853 23.2991 11.4853Z" fill="white"/>
</svg>

<svg width="34" height="29" fill="none" xmlns="http://www.w3.org/2000/svg"><path d="M33.252 9.2L12.039 3.794a1.002 1.002 0 00-.943.25.982.982 0 00-.276.927l3.26 14.152h-1.276L8.902 2.19a.992.992 0 00-.769-.747L1.198.02A.996.996 0 00.021.788a.988.988 0 00.774 1.167L7.103 3.25l3.936 17.082c.103.45.506.768.97.768h19.6c.505 0 .92-.375.987-.852l1.394-9.954a.988.988 0 00-.738-1.093zm-2.51 9.923H16.124L13.126 6.111l18.769 4.783-1.153 8.23z" fill="#fff"/><path d="M19.036 10.168a.992.992 0 00-.996.988v4.346c0 .545.446.987.996.987s.996-.442.996-.987v-4.346a.992.992 0 00-.996-.988zm8.526 2.371a.992.992 0 00-.996.987v1.976c0 .545.446.987.996.987s.996-.442.996-.987v-1.976a.992.992 0 00-.996-.987zM16.83 22.416c-1.832 0-3.321 1.476-3.321 3.292 0 1.815 1.49 3.292 3.32 3.292 1.83 0 3.32-1.477 3.32-3.292 0-1.816-1.49-3.292-3.32-3.292zm0 4.609c-.733 0-1.329-.591-1.329-1.317s.596-1.317 1.328-1.317c.732 0 1.328.59 1.328 1.317 0 .726-.596 1.317-1.328 1.317zm9.96-4.609c-1.83 0-3.32 1.476-3.32 3.292 0 1.815 1.49 3.292 3.32 3.292 1.83 0 3.32-1.477 3.32-3.292 0-1.816-1.49-3.292-3.32-3.292zm0 4.609c-.732 0-1.328-.591-1.328-1.317s.596-1.317 1.328-1.317c.732 0 1.328.59 1.328 1.317 0 .726-.596 1.317-1.328 1.317zm-3.49-15.54a.992.992 0 00-.997.988v3.029c0 .545.446.987.996.987s.996-.442.996-.987v-3.029a.992.992 0 00-.996-.988z" fill="#fff"/></svg>
